16/panel/update-high.svg

<svg xmlns="http://www.w3.org/2000/svg" width="16" height="16" version="1.1">
 <defs>
  <style id="current-color-scheme" type="text/css">
   .ColorScheme-Text { color:#dfdfdf; } .ColorScheme-Highlight { color:#4285f4; } .ColorScheme-NeutralText { color:#ff9800; } .ColorScheme-PositiveText { color:#4caf50; } .ColorScheme-NegativeText { color:#f44336; }
  </style>
 </defs>
 <circle style="fill:currentColor" class="ColorScheme-NegativeText" cx="14.5" cy="14.5" r="1.5"/>
 <path style="fill:currentColor" class="ColorScheme-Text" d="m 8.0000001,1 c -3.8660125,0 -7,3.1339875 -7,7 0,3.86575 3.1339875,7 7,7 C 11.86575,15 15,11.86575 15,8 15,4.1339875 11.86575,1 8.0000001,1 Z m 0,2 c 1.1451686,0 2.2890859,0.3937827 3.2167969,1.1757812 -0.24522,0.116178 -0.467516,0.2898617 -0.640625,0.5371094 L 9.9257813,5.640625 9.8906253,5.691406 C 8.7122693,4.7257945 6.978911,4.7789016 5.8789065,5.878906 5.2932286,6.4645842 5.0040148,7.2323748 5.0039065,7.9999998 h 0.296875 A 0.69921389,0.57389046 0 0 1 5.9062503,8.8613279 L 5.2558595,9.7851562 4.6054689,10.712891 a 0.69921389,0.57389046 0 0 1 -1.2109376,0 L 2.7441407,9.7851562 2.0937501,8.8613281 A 0.69921389,0.57389046 0 0 1 2.6992189,8 H 3.0019532 C 3.0021591,6.7206583 3.488739,5.4409485 4.4648439,4.4648438 5.4411545,3.488533 6.7203885,3 8.0000001,3 Z m 3.9628909,2 a 0.69921389,0.57389046 0 0 1 0.642578,0.2871094 l 0.65039,0.9277344 0.650391,0.9238281 A 0.69921389,0.57389046 0 0 1 13.300781,8 h -0.302734 c -2.06e-4,1.2793417 -0.486786,2.559051 -1.462891,3.535156 C 10.558846,12.511467 9.2796117,13 8.0000001,13 6.855694,13 5.712495,12.606993 4.7851563,11.826172 c 0.240815,-0.11403 0.462906,-0.287349 0.6386719,-0.53711 v -0.002 l 0.6503907,-0.927734 0.035156,-0.05078 c 1.178356,0.965611 2.9117135,0.912505 4.0117191,-0.1875 C 10.706772,9.5354149 10.995986,8.767625 10.996094,8 H 10.699219 A 0.69921389,0.57389046 0 0 1 10.09375,7.1386719 l 0.650391,-0.9238281 0.65039,-0.9277344 A 0.69921389,0.57389046 0 0 1 11.962891,5 Z"/>
</svg>

<svg xmlns="http://www.w3.org/2000/svg" width="16" height="16" version="1.1">
 <defs>
  <style id="current-color-scheme" type="text/css">
   .ColorScheme-Text { color:#dfdfdf; } .ColorScheme-Highlight { color:#4285f4; }
  </style>
 </defs>
 <path style="fill:currentColor" class="ColorScheme-Text" d="M 8 1 C 4.1339875 1 1 4.1339875 1 8 C 1 11.86575 4.1339875 15 8 15 C 11.86575 15 15 11.86575 15 8 C 15 4.1339875 11.86575 1 8 1 z M 8 3 C 9.1451686 3 10.289086 3.3937827 11.216797 4.1757812 C 10.971577 4.2919592 10.749281 4.4656429 10.576172 4.7128906 L 9.9257812 5.640625 L 9.890625 5.6914062 C 8.712269 4.7257947 6.9789107 4.7789018 5.8789062 5.8789062 C 5.2932283 6.4645844 5.0040145 7.232375 5.0039062 8 L 5.3007812 8 A 0.69921389 0.57389046 0 0 1 5.90625 8.8613281 L 5.2558594 9.7851562 L 4.6054688 10.712891 A 0.69921389 0.57389046 0 0 1 3.3945312 10.712891 L 2.7441406 9.7851562 L 2.09375 8.8613281 A 0.69921389 0.57389046 0 0 1 2.6992188 8 L 3.0019531 8 C 3.002159 6.7206583 3.4887389 5.4409485 4.4648438 4.4648438 C 5.4411544 3.488533 6.7203884 3 8 3 z M 11.962891 5 A 0.69921389 0.57389046 0 0 1 12.605469 5.2871094 L 13.255859 6.2148438 L 13.90625 7.1386719 A 0.69921389 0.57389046 0 0 1 13.300781 8 L 12.998047 8 C 12.997841 9.2793417 12.511261 10.559051 11.535156 11.535156 C 10.558846 12.511467 9.2796116 13 8 13 C 6.8556939 13 5.7124949 12.606993 4.7851562 11.826172 C 5.0259712 11.712142 5.2480622 11.538823 5.4238281 11.289062 L 5.4238281 11.287109 L 6.0742188 10.359375 L 6.109375 10.308594 C 7.287731 11.274205 9.0210885 11.221099 10.121094 10.121094 C 10.706772 9.5354149 10.995986 8.767625 10.996094 8 L 10.699219 8 A 0.69921389 0.57389046 0 0 1 10.09375 7.1386719 L 10.744141 6.2148438 L 11.394531 5.2871094 A 0.69921389 0.57389046 0 0 1 11.962891 5 z"/>
 <circle style="fill:currentColor" class="ColorScheme-Highlight" cx="14.5" cy="14.5" r="1.5"/>
</svg>
